app/assets/images/icons/active/flickr.svg

<?xml version="1.0" encoding="UTF-8" standalone="no"?>
<svg width="32px" height="232px" viewBox="0 0 32 232" version="1.1" xmlns="http://www.w3.org/2000/svg" xmlns:xlink="http://www.w3.org/1999/xlink" xmlns:sketch="http://www.bohemiancoding.com/sketch/ns">
    <title>flickr</title>
    <description>Created with Sketch (http://www.bohemiancoding.com/sketch)</description>
    <defs></defs>
    <g id="Social" stroke="none" stroke-width="1" fill="none" fill-rule="evenodd" sketch:type="MSPage">
        <path d="M10.0500062,21.6805625 C7.26154227,21.6805625 5,19.3980625 5,16.5806875 C5,13.762625 7.26154227,11.4794375 10.0500062,11.4794375 C12.841874,11.4794375 15.104097,13.762625 15.104097,16.5806875 C15.104097,19.3980625 12.841874,21.6805625 10.0500062,21.6805625 L10.0500062,21.6805625 L10.0500062,21.6805625 L10.0500062,21.6805625 Z M21.9486323,21.68125 C19.1608491,21.68125 16.8945414,19.400125 16.8945414,16.5806875 C16.8945414,13.76125 19.1608491,11.47875 21.9486323,11.47875 C24.7370962,11.47875 27,13.76125 27,16.5806875 C27,19.400125 24.7370962,21.68125 21.9486323,21.68125 L21.9486323,21.68125 Z M21.9486323,21.68125" id="flickr--title-grey" fill="#3A434E" sketch:type="MSShapeGroup"></path>
        <path d="M10.0500062,61.6805625 C7.26154227,61.6805625 5,59.3980625 5,56.5806875 C5,53.762625 7.26154227,51.4794375 10.0500062,51.4794375 C12.841874,51.4794375 15.104097,53.762625 15.104097,56.5806875 C15.104097,59.3980625 12.841874,61.6805625 10.0500062,61.6805625 L10.0500062,61.6805625 L10.0500062,61.6805625 L10.0500062,61.6805625 Z M21.9486323,61.68125 C19.1608491,61.68125 16.8945414,59.400125 16.8945414,56.5806875 C16.8945414,53.76125 19.1608491,51.47875 21.9486323,51.47875 C24.7370962,51.47875 27,53.76125 27,56.5806875 C27,59.400125 24.7370962,61.68125 21.9486323,61.68125 L21.9486323,61.68125 Z M21.9486323,61.68125" id="flickr--title-grey-copy" fill="#67737B" sketch:type="MSShapeGroup"></path>
        <path d="M10.0500062,101.680563 C7.26154227,101.680563 5,99.3980625 5,96.5806875 C5,93.762625 7.26154227,91.4794375 10.0500062,91.4794375 C12.841874,91.4794375 15.104097,93.762625 15.104097,96.5806875 C15.104097,99.3980625 12.841874,101.680563 10.0500062,101.680563 L10.0500062,101.680563 L10.0500062,101.680563 L10.0500062,101.680563 Z M21.9486323,101.68125 C19.1608491,101.68125 16.8945414,99.400125 16.8945414,96.5806875 C16.8945414,93.76125 19.1608491,91.47875 21.9486323,91.47875 C24.7370962,91.47875 27,93.76125 27,96.5806875 C27,99.400125 24.7370962,101.68125 21.9486323,101.68125 L21.9486323,101.68125 Z M21.9486323,101.68125" id="flickr--title-grey-copy-2" fill="#FFFFFF" sketch:type="MSShapeGroup"></path>
        <path d="M10.0500062,142.201813 C7.26154227,142.201813 5,139.919313 5,137.101938 C5,134.283875 7.26154227,132.000688 10.0500062,132.000688 C12.841874,132.000688 15.104097,134.283875 15.104097,137.101938 C15.104097,139.919313 12.841874,142.201813 10.0500062,142.201813 L10.0500062,142.201813 L10.0500062,142.201813 L10.0500062,142.201813 Z M21.9486323,142.2025 C19.1608491,142.2025 16.8945414,139.921375 16.8945414,137.101937 C16.8945414,134.2825 19.1608491,132 21.9486323,132 C24.7370962,132 27,134.2825 27,137.101937 C27,139.921375 24.7370962,142.2025 21.9486323,142.2025 L21.9486323,142.2025 Z M21.9486323,142.2025" id="flickr--title-grey-copy-3" fill="#206FAC" sketch:type="MSShapeGroup"></path>
    </g>
</svg>

<svg width="32" height="232" viewBox="0 0 32 232" xmlns="http://www.w3.org/2000/svg" xmlns:sketch="http://www.bohemiancoding.com/sketch/ns"><title>flickr</title><g sketch:type="MSPage" fill="none"><path d="M10.05 21.681c-2.788 0-5.05-2.282-5.05-5.1 0-2.818 2.262-5.101 5.05-5.101 2.792 0 5.054 2.283 5.054 5.101 0 2.817-2.262 5.1-5.054 5.1zm11.899.001c-2.788 0-5.054-2.281-5.054-5.101 0-2.819 2.266-5.102 5.054-5.102 2.788 0 5.051 2.283 5.051 5.102 0 2.819-2.263 5.101-5.051 5.101zm0 0" fill="#3A434E" sketch:type="MSShapeGroup"/><path d="M10.05 61.681c-2.788 0-5.05-2.282-5.05-5.1 0-2.818 2.262-5.101 5.05-5.101 2.792 0 5.054 2.283 5.054 5.101 0 2.817-2.262 5.1-5.054 5.1zm11.899.001c-2.788 0-5.054-2.281-5.054-5.101 0-2.819 2.266-5.102 5.054-5.102 2.788 0 5.051 2.282 5.051 5.102 0 2.819-2.263 5.101-5.051 5.101zm0 0" fill="#67737B" sketch:type="MSShapeGroup"/><path d="M10.05 101.681c-2.788 0-5.05-2.283-5.05-5.1 0-2.818 2.262-5.101 5.05-5.101 2.792 0 5.054 2.283 5.054 5.101 0 2.817-2.262 5.1-5.054 5.1zm11.899.001c-2.788 0-5.054-2.281-5.054-5.101 0-2.819 2.266-5.102 5.054-5.102 2.788 0 5.051 2.282 5.051 5.102 0 2.819-2.263 5.101-5.051 5.101zm0 0" fill="#fff" sketch:type="MSShapeGroup"/><path d="M10.05 142.202c-2.788 0-5.05-2.282-5.05-5.1 0-2.818 2.262-5.101 5.05-5.101 2.792 0 5.054 2.283 5.054 5.101 0 2.817-2.262 5.1-5.054 5.1zm11.899.001c-2.788 0-5.054-2.281-5.054-5.101 0-2.819 2.266-5.102 5.054-5.102 2.788 0 5.051 2.282 5.051 5.102 0 2.819-2.263 5.101-5.051 5.101zm0 0" fill="#206FAC" sketch:type="MSShapeGroup"/></g></svg>
